build/img/icon-card-2.svg

<svg width="30" height="18" viewBox="0 0 30 18" fill="none" xmlns="http://www.w3.org/2000/svg">
<path d="M23 6C23 6.71458 22.7502 7.37081 22.3331 7.8861C22.5417 7.95986 22.7661 8 23 8C24.1046 8 25 7.10457 25 6C25 4.89543 24.1046 4 23 4C22.7661 4 22.5417 4.04014 22.3331 4.1139C22.7502 4.62919 23 5.28542 23 6Z" fill="#151515"/>
<path fill-rule="evenodd" clip-rule="evenodd" d="M2 0C0.895431 0 0 0.895431 0 2V16C0 17.1046 0.895432 18 2 18H28C29.1046 18 30 17.1046 30 16V2C30 0.895431 29.1046 0 28 0H2ZM20 9C20.5464 9 21.0587 8.85391 21.5 8.59865C21.9413 8.85391 22.4536 9 23 9C24.6569 9 26 7.65685 26 6C26 4.34315 24.6569 3 23 3C22.4536 3 21.9413 3.14609 21.5 3.40135C21.0587 3.14609 20.5464 3 20 3C18.3431 3 17 4.34315 17 6C17 7.65685 18.3431 9 20 9ZM4.5 14C4.22386 14 4 14.2239 4 14.5C4 14.7761 4.22386 15 4.5 15H7.5C7.77614 15 8 14.7761 8 14.5C8 14.2239 7.77614 14 7.5 14H4.5ZM4 11.5C4 11.2239 4.22386 11 4.5 11H13.5C13.7761 11 14 11.2239 14 11.5C14 11.7761 13.7761 12 13.5 12H4.5C4.22386 12 4 11.7761 4 11.5ZM10.5 14C10.2239 14 10 14.2239 10 14.5C10 14.7761 10.2239 15 10.5 15H13.5C13.7761 15 14 14.7761 14 14.5C14 14.2239 13.7761 14 13.5 14H10.5ZM16 14.5C16 14.2239 16.2239 14 16.5 14H19.5C19.7761 14 20 14.2239 20 14.5C20 14.7761 19.7761 15 19.5 15H16.5C16.2239 15 16 14.7761 16 14.5ZM22.5 14C22.2239 14 22 14.2239 22 14.5C22 14.7761 22.2239 15 22.5 15H25.5C25.7761 15 26 14.7761 26 14.5C26 14.2239 25.7761 14 25.5 14H22.5Z" fill="#151515"/>
</svg>

<svg width="30" height="18" fill="none" xmlns="http://www.w3.org/2000/svg"><path d="M23 6c0 .715-.25 1.37-.667 1.886a2 2 0 100-3.772C22.75 4.629 23 5.285 23 6z" fill="#151515"/><path fill-rule="evenodd" clip-rule="evenodd" d="M2 0a2 2 0 00-2 2v14a2 2 0 002 2h26a2 2 0 002-2V2a2 2 0 00-2-2H2zm18 9c.546 0 1.059-.146 1.5-.401a3 3 0 100-5.197A3 3 0 1020 9zM4.5 14a.5.5 0 000 1h3a.5.5 0 000-1h-3zM4 11.5a.5.5 0 01.5-.5h9a.5.5 0 010 1h-9a.5.5 0 01-.5-.5zm6.5 2.5a.5.5 0 000 1h3a.5.5 0 000-1h-3zm5.5.5a.5.5 0 01.5-.5h3a.5.5 0 010 1h-3a.5.5 0 01-.5-.5zm6.5-.5a.5.5 0 000 1h3a.5.5 0 000-1h-3z" fill="#151515"/></svg>
